X: 6
T: The Headlands
R: strathspey
M: 4/4
L: 1/8
K: Amaj
d>cB>A B<cE>A | F<Ad>f ~e2 (3efg | a>ef<a f>ed<c | c>BA<c B2 c>B |d>cB>A B<cE>A | F>Ad>f ~a2 g>f | e<ae>c B>fe>d | c2 ~A2 A2 :|a>ef<a c>ec<A | d>Ad<f e2 (3efg | a>ef<a f>ed<c |[1 c>BA<c B2 (3efg | a>ee<a c>ec<A | d>Ad<f a2 g>f | e<aA>c B>fe>d | ~c2 A2 A2 :|[2 c>BAc B2 e>d | d>cB>A A<cE>A | F>Ad>f ~a2 g>f | e<aA>c B>fe>d | ~c2 A2 A2 |]


Tune 1950	Setting 15376

